X: 34455
T: Rideau Lake Jig, The
R: slide
M: 12/8
K: Dmajor
|:F/E/|D2 F A2 d f2 d A2 F|GFG EFG B2 A GG/F/E|
D2 F A2 d f2 d A2 F|G2 G ECA, D3- D2:|
|:A|d2 f a^ga ba^g a2 f|gfg ece f2 d A2 c|
d2 f a^ga ba^g a2 f|g2 g ecA d3- d2:|

